X:1
T:[ID 2-85]
T:[ID 2-85]
T:Bezeichnung standardisiert: Polonaise Polonoise
T:Urheber unbekannt Datum in der hier transkribierten schriftlichen Quelle: 1767
C:Urheber unbekannt
C:Datum in der hier transkribierten schriftlichen Quelle: 1767
L:1/8
M:3/4
K:A
V:1 treble 
V:1
 A/B/c/B/ Ad c2 | A/B/c/B/ Aa{a} g2 | E/F/G/A/ B/c/d/e/ d/c/B/A/ | G/A/B/A/{A} B4 :: %4
 E/D/C/B,/ A,=g{g} f2 |{g} fe/d/{f} ed/c/ d2 | F/E/^D/C/ B,a{a} g2 |{a} ge/^d/{g} fe/d/{d} e2 | %8
 B/c/d/e/ dccB | c/e/a/g/ aedc | B/c/d/e/ dccB | c/e/a/g/ aedc | [DAf]2 .f/.e/.d/.c/ B/A/G/F/ | %13
 EA/G/{G} A4 :| %14

